!!!!SEGMENT: pl-sa--600-a-ix-80--005_anonim--rondo.krn
!!!cenid: 18xx:670
!!!COM: Anonim
!!!COM-rismid: pe30004985
!!!CDT:
!!!CNT:
!!!OTL: Rondo
!!!PDT:
!!!AGN: Secular; Rondo
!!!SMS-siglum: PL-SA
!!!SMS-shelfmark: 600/A IX 80
!!!SMS-shelfwork: 005 W
!!!SMS-variant:
!!!SMS-altvar:
!!!NIFC-rismid: 1001065708
!!!URL-scan: http://bc.bdsandomierz.pl/dlibra/publication/1408/edition/1376/content
!!!ONB-nifc: Str. 3 (s. 3) – str. 4 (s. 2)
**kern	**kern
*part2	*part1
*staff2	*staff1
*I"Piano	*I"Piano
*group1	*group1
*clefF4	*clefG2
*k[]	*k[]
*M2/4	*M2/4
!	!LO:TX:b:i:t=Rondo
!LO:TX:a:t=P:problem:brak pauzy ósemkowej	!
!LO:TX:a:t=P:problem:brak oznaczenia metrycznego	!LO:TX:a:t=P:problem:brak oznaczenia metrycznego
8ryy	8g/
*clefG2	*
=1	=1
8c/L 8e	8cc\L
8c/ 8e	8ee\
8c/ 8e	8cc\
8c/J 8e	8ee\J
=2	=2
*rep	*
8c/L 8e	16gg\LL
.	16aa\
8c/ 8e	16bb\
.	16ccc\JJ
8c/ 8e	8gg\L
8c/J 8e	8ee\J
*Xrep	*
=3	=3
*rep	*
8c/L 8e	8cc\L
8c/ 8e	8ee\
8c/ 8e	8cc\
8c/J 8e	8ee\J
*Xrep	*
=4	=4
8G/L 8d	16dd\LL
.	16cc\
8G/ 8d	16b\
.	16a\JJ
8G/J 8d	8g/
8r	8g/
*clefF4	*
=5	=5
16C\LL	8cc\L
16G\	.
16E\	8ee\
16G\JJ	.
*rep	*
16C\LL	8cc\
16G\	.
16E\	8ee\J
16G\JJ	.
*Xrep	*
=6	=6
*rep	*
16C\LL	16gg\LL
16G\	16aa\
16E\	16bb\
16G\JJ	16ccc\JJ
16C\LL	8gg\L
16G\	.
16E\	8ee\J
16G\JJ	.
*Xrep	*
=7	=7
8F\L	16dd\LL
.	16aa\
8D\J	16gg\
.	16ff\JJ
8G\L	16ee\LL
.	16dd\
8GG\J	16cc\
.	16b\JJ
=	=
8C\L 8E	4cc\
8E\ 8G	.
8C\J 8E	8r
=8||	=8||
!LO:TX:a:t=P:problem:brak pauzy ósemkowej	!
8ryy	8b\
=9	=9
8d\L 8f	16b\LL
.	16cc\
8G\	16dd\
.	16ee\JJ
8d\ 8f	16ff\LL
.	16gg\
8G\J	16aa\
.	16bb\JJ
!LO:LB:g=original	!LO:LB:g=original
=10	=10
8c\L 8e	16cc\LL
.	16dd\
8G\	16ee\
.	16ff\JJ
8c\ 8e	8gg\L
8G\J	8gg\J
=11	=11
8G\L	16ff\LL
.	16ee\
8B\	16dd\
.	16gg\JJ
8c\	16ee\LL
.	16dd\
8e\J	16cc\
.	16gg\JJ
=12	=12
4.G\ 4.B	16dd\LL
.	16cc\
.	16b\
.	16a\JJ
.	8g/
!LO:TX:a:t=P:problem:brak pauzy ósemkowej	!
8ryy	8cc\
=13	=13
8d\L 8f	16b\LL
.	16cc\
8G\	16dd\
.	16ee\JJ
8d\ 8f	16ff\LL
.	16gg\
8G\J	16aa\
.	16bb\JJ
=14	=14
8c\L 8e	16cc\LL
.	16dd\
8G\	16ee\
.	16ff\JJ
8c\J 8e	8gg\L
8r	8gg\J
=15	=15
8A\L 8c	16ff#X\LL
.	16ee\
8D\	16dd\
.	16cc\JJ
8A\ 8c	16b/LL
.	16a/
8D\J	16g/
!	!LO:SIC:s=16f#:v
.	16f/JJ
=16	=16
8G\ 8B	8gg\
8G\L 8c	16aa\LL
.	16ff#X\JJ
8G\ 8B	8gg\L
8G\J 8c	16aa\L
.	16ff#\JJ
=17	=17
8G\ 8B	8gg\L
*clefG2	*
8g/L 8cc	16aa\L
.	16ff#X\JJ
8g/ 8b	8gg\L
8g/J 8cc	16aa\L
.	16ff#\JJ
=18	=18
8g/ 8b	8gg\L
8r	16aa\L
.	16gg\JJ
8G/ 8B	8ffn\L
8r	16gg\L
.	16ff\JJ
!LO:LB:g=original	!LO:LB:g=original
=19	=19
8G/ 8c	8ee\L
8r	16ff\L
.	16ee\JJ
8G/ 8f	8dd\L
8r	16ee\L
.	16dd\JJ
=20	=20
8c/L 8e	8cc\L
8c/ 8e	8ee\
8c/ 8e	8cc\
8c/J 8e	8ee\J
=21	=21
*rep	*
8c/L 8e	16gg\LL
.	16aa\
8c/ 8e	16bb\
.	16ccc\JJ
8c/ 8e	8gg\L
8c/J 8e	8ee\J
*Xrep	*
=22	=22
*rep	*
8c/L 8e	8cc\L
8c/ 8e	8ee\
8c/ 8e	8cc\
8c/J 8e	8ee\J
*Xrep	*
=23	=23
8G/L 8d	16dd\LL
.	16cc\
8G/ 8d	16b\
.	16a\JJ
8G/J 8d	8g/L
8r	8g/J
*clefF4	*
=24	=24
16C\LL	8cc\L
16G\	.
16E\	8ee\
16G\JJ	.
*rep	*
16C\LL	8cc\
16G\	.
16E\	8ee\J
16G\JJ	.
*Xrep	*
=25	=25
*rep	*
16C\LL	16gg\LL
16G\	16aa\
16E\	16bb\
16G\JJ	16ccc\JJ
16C\LL	8gg\L
16G\	.
16E\	8ee\J
16G\JJ	.
*Xrep	*
=26	=26
8F\L	16dd\LL
.	16aa\
8D\J	16gg\
.	16ff\JJ
8G\L	16ee\LL
.	16dd\
8GG\J	16cc\
.	16b\JJ
=27	=27
8C\ 8E	8cc\L
8r	16cc\L
.	16dd\JJ
8c\L 8e	8ee\L
8c\J 8e	16ee\L
.	16dd\JJ
=28	=28
8A\ 8e	8cc\L
8r	16cc\L
.	16dd\JJ
8A\L 8c	8ee\L
8A\J 8c	16ff\L
.	16ee\JJ
=29	=29
8F\ 8A	8dd\L
8r	16dd\L
.	16ee\JJ
8F\L 8A	8ff\L
8F\J 8A	16dd\L
.	16cc\JJ
!LO:PB:g=original	!LO:PB:g=original
=30	=30
8G\ 8d	8b\L
8r	16b\L
.	16cc\JJ
8G\L 8f	8dd\L
8G\J 8f	16ee\L
.	16dd\JJ
=31	=31
2c\ 2e	16cc\LL
.	16dd\
.	16ee\
.	16ff\JJ
.	16gg\LL
.	16aa\
.	16bb\
.	16ccc\JJ
=32	=32
2c\ 2e	16cc\LL
.	16dd\
.	16ee\
.	16ff\JJ
.	16gg\LL
.	16aa\
.	16bb\
.	16ccc\JJ
=33	=33
2F\ 2A	16dd\LL
.	16ee\
.	16ff\
.	16gg\JJ
.	16aa\LL
.	16bb\
.	16ccc\
.	16ddd\JJ
=34	=34
4r	16gg\LL
.	16aa\
.	16bb\
.	16ccc\JJ
4G\ 4B 4f	16dd\LL
.	16ee\
.	16ff\
.	16gg\JJ
=35	=35
4c\ 4e	4ccc\
8r	8r
!LO:TX:a:t=P:problem:belka przechodzi przez kreskę taktową	!
8G\L 8d	16gg\LL
.	16b\JJ
=36	=36
8c\J 8e	8cc\L
8G\L 8d	16gg\L
.	16b\JJ
8c\ 8e	8cc\L
8G\J 8d	16gg\L
.	16b\JJ
=37	=37
8c\ 8e	8cc\
8r	8r
8r	8r
8GG\ 8D	16g/LL
.	16B/JJ
=38	=38
8C\L 8E	8c/L
8GG\J 8D	16g/L
.	16B/JJ
8C\L 8E	8c/L
8GG\J 8D	16g/L
.	16B/JJ
!LO:LB:g=original	!LO:LB:g=original
=39	=39
8C\ 8E	8c/
8r	8r
4C\ 4G	4e/ 4cc
=40	=40
4C\ 4G	4e/ 4cc
4r	4r
==	==
*-	*-
!!!system-decoration: [(g1)]
!!!ENC:Anna Matuszewska
!!!END:2020-11-24
!!!ENC: Andrzej Kubiczek
!!!END: 2020-06-20
